UI/Navigation-Image/SVG/brightness-on_solid_24px.svg

<svg width="24" height="24" viewBox="0 0 24 24" fill="none" xmlns="http://www.w3.org/2000/svg">
<path d="M18 12C18 13.1867 17.6481 14.3467 16.9888 15.3334C16.3295 16.3201 15.3925 17.0892 14.2961 17.5433C13.1997 17.9974 11.9933 18.1162 10.8295 17.8847C9.66557 17.6532 8.59647 17.0818 7.75736 16.2426C6.91824 15.4035 6.3468 14.3344 6.11529 13.1705C5.88378 12.0067 6.0026 10.8003 6.45672 9.7039C6.91085 8.60754 7.67988 7.67047 8.66658 7.01118C9.65327 6.35189 10.8133 6 12 6C13.5913 6 15.1174 6.63214 16.2426 7.75736C17.3679 8.88258 18 10.4087 18 12ZM5.41 4L7.41 6C6.88177 6.42685 6.40819 6.91722 6 7.46L4 5.46L5.41 4ZM4.53 13H2V11H4.53C4.44997 11.6643 4.44997 12.3357 4.53 13ZM11 2H13V4.53C12.3357 4.44997 11.6643 4.44997 11 4.53V2ZM16.59 6L18.59 4L20 5.37L18 7.37C17.5842 6.86064 17.1111 6.40093 16.59 6ZM12 19.53C12.3342 19.5303 12.6682 19.5102 13 19.47V22H11V19.47C11.3318 19.5102 11.6658 19.5303 12 19.53ZM22 11V13H19.47C19.55 12.3357 19.55 11.6643 19.47 11H22ZM7.41 18L5.41 20L4 18.62L6 16.62C6.41517 17.1329 6.88832 17.596 7.41 18ZM18 16.59L20.06 18.65L18.65 20.06L16.59 18C17.1134 17.5866 17.5866 17.1134 18 16.59Z" fill="#0F1621"/>
</svg>

<svg xmlns="http://www.w3.org/2000/svg" width="24" height="24" viewBox="0 0 24 24"><rect width="24" height="24" style="fill:none"/><path d="M18,12a6,6,0,1,1-6-6A6,6,0,0,1,18,12ZM5.41,4l2,2A8.26,8.26,0,0,0,6,7.46l-2-2Zm-.88,9H2V11H4.53a8.36,8.36,0,0,0,0,2ZM11,2h2V4.53a8.36,8.36,0,0,0-2,0Zm5.59,4,2-2L20,5.37l-2,2A8.55,8.55,0,0,0,16.59,6ZM12,19.53a8.26,8.26,0,0,0,1-.06V22H11V19.47A8.26,8.26,0,0,0,12,19.53ZM22,11v2H19.47a8.36,8.36,0,0,0,0-2ZM7.41,18l-2,2L4,18.62l2-2A8.55,8.55,0,0,0,7.41,18ZM18,16.59l2.06,2.06-1.41,1.41L16.59,18A8.55,8.55,0,0,0,18,16.59Z"/></svg>
